images/groups/group-simple-project-dark.svg

<?xml version="1.0" encoding="UTF-8" standalone="no"?><!DOCTYPE svg PUBLIC "-//W3C//DTD SVG 1.1//EN" "http://www.w3.org/Graphics/SVG/1.1/DTD/svg11.dtd"><svg width="16px" height="16px" viewBox="0 0 16 16" version="1.1" xmlns="http://www.w3.org/2000/svg" xmlns:xlink="http://www.w3.org/1999/xlink" xml:space="preserve" xmlns:serif="http://www.serif.com/" style="fill-rule:evenodd;clip-rule:evenodd;stroke-linejoin:round;stroke-miterlimit:2;"><path d="M12.99,14.5l-0.49,0.501l-11.001,0l-0.5,-0.5l0,-13.002l0.5,-0.5l11.002,0l0.5,0.5l-0.011,13.001Zm-0.995,-0.498l0.006,-12.003l-1.009,0l0.008,12.003l0.999,0l-0.004,0Zm-2.003,0l0.015,-12.003l-7.998,0l-0.01,12.002l7.993,0.001Z" style="fill:#c5c5c5;"/></svg>

<?xml version="1.0" encoding="UTF-8" standalone="no"?><!DOCTYPE svg PUBLIC "-//W3C//DTD SVG 1.1//EN" "http://www.w3.org/Graphics/SVG/1.1/DTD/svg11.dtd"><svg width="16px" height="16px" viewBox="0 0 16 16" version="1.1" xmlns="http://www.w3.org/2000/svg" xmlns:xlink="http://www.w3.org/1999/xlink" xml:space="preserve" xmlns:serif="http://www.serif.com/" style="fill-rule:evenodd;clip-rule:evenodd;stroke-linejoin:round;stroke-miterlimit:2;"><path d="M12.99,14.5L12.5,15.001L1.499,15.001L0.999,14.501L0.999,1.499L1.499,0.999L12.501,0.999L13.001,1.499L12.99,14.5ZM11.995,14.002L12.001,1.999L9.992,1.999L10,14.002L11.999,14.002L11.995,14.002ZM8.992,14.002L9.007,1.999L2.009,1.999L1.999,14.001L8.992,14.002Z" style="fill:rgb(197,197,197);"/></svg>
